X: 3423
T: Bessie The Beauty Of Rossinure Hill
R: waltz
M: 3/4
K: Edorian
B,E|B3cB2|A3Bc2|dF3 E2|D3EF2|G2A2Bc|d2c2BA|{F}E4D2|E4:|
AB|e3~fe2|d4 e2|f2 e2 dc|dB3 AB|e3~fe2|d4 e2|f2e2 dc|d3 BAB|
e3~fe2|d4 e2|f2e2 dc|dB3AF|G2A2Bc|d2c2BA|{F}E4D2|E4:|

